packages/components/Atoms/Icon/assets/img/rpl_icon_dotx.svg

<svg width="20" height="20" viewBox="0 0 20 20" overflow="visible" xmlns="http://www.w3.org/2000/svg">
  <path fill-rule="evenodd" clip-rule="evenodd" d="M10 5V2.824L12.176 5H10ZM10.003 0H1C0.447 0 0 0.447 0 1V19C0 19.553 0.447 20 1 20H14C14.553 20 15 19.553 15 19V16H13V18H2V2H8V6C8 6.553 8.447 7 9 7H13V9H15V4.997L10.003 0Z"
    fill="inherit" />
  <path fill-rule="evenodd" clip-rule="evenodd" d="M5.7051 11.3984C5.5941 11.2304 5.4251 11.1184 5.1171 11.1184H4.5781V13.9194H5.1171C5.4251 13.9194 5.5941 13.8074 5.7051 13.6394C5.8041 13.5004 5.8391 13.3674 5.8391 12.5194C5.8391 11.6784 5.8041 11.5394 5.7051 11.3984ZM6.5461 14.5224C6.2031 14.8654 5.7201 15.0124 5.2011 15.0124H3.3521V10.0264H5.2011C5.7201 10.0264 6.2031 10.1724 6.5461 10.5164C7.1271 11.0974 7.0641 11.7354 7.0641 12.5194C7.0641 13.3034 7.1271 13.9414 6.5461 14.5224Z"
    fill="inherit" />
  <path fill-rule="evenodd" clip-rule="evenodd" d="M9.9961 11.2939C9.9051 11.1749 9.7301 11.0759 9.5061 11.0759C9.2821 11.0759 9.1061 11.1749 9.0161 11.2939C8.9031 11.4399 8.8341 11.6079 8.8341 12.5199C8.8341 13.4299 8.9031 13.5909 9.0161 13.7379C9.1061 13.8569 9.2821 13.9619 9.5061 13.9619C9.7301 13.9619 9.9051 13.8569 9.9961 13.7379C10.1081 13.5909 10.1791 13.4299 10.1791 12.5199C10.1791 11.6079 10.1081 11.4399 9.9961 11.2939ZM10.8991 14.4939C10.5361 14.8579 10.1151 15.0549 9.5061 15.0549C8.8961 15.0549 8.4761 14.8579 8.1121 14.4939C7.5871 13.9689 7.6081 13.2689 7.6081 12.5199C7.6081 11.7699 7.5871 11.0689 8.1121 10.5439C8.4761 10.1799 8.8961 9.9839 9.5061 9.9839C10.1151 9.9839 10.5361 10.1799 10.8991 10.5439C11.4251 11.0689 11.4041 11.7699 11.4041 12.5199C11.4041 13.2689 11.4251 13.9689 10.8991 14.4939Z"
    fill="inherit" />
  <path fill-rule="evenodd" clip-rule="evenodd" d="M14.126 11.1181V15.0131H12.9V11.1181H11.675V10.0261H15.352V11.1181H14.126Z"
    fill="inherit" />
  <path fill-rule="evenodd" clip-rule="evenodd" d="M18.5996 15.0127L17.7806 13.4787L16.9606 15.0127H15.5596L17.1146 12.4557L15.6586 10.0267H17.0516L17.7806 11.4337L18.5086 10.0267H19.9026L18.4456 12.4557L19.9996 15.0127H18.5996Z"
    fill="inherit" />
</svg>

<svg width="20" height="20" overflow="visible" xmlns="http://www.w3.org/2000/svg"><path fill-rule="evenodd" clip-rule="evenodd" d="M10 5V2.824L12.176 5H10zm.003-5H1a1 1 0 00-1 1v18a1 1 0 001 1h13a1 1 0 001-1v-3h-2v2H2V2h6v4a1 1 0 001 1h4v2h2V4.997L10.003 0z" fill="inherit"/><path fill-rule="evenodd" clip-rule="evenodd" d="M5.705 11.398c-.11-.168-.28-.28-.588-.28h-.539v2.801h.54c.307 0 .476-.112.587-.28.1-.139.134-.272.134-1.12 0-.84-.035-.98-.134-1.12zm.841 3.124c-.343.343-.826.49-1.345.49H3.352v-4.986h1.85c.518 0 1.001.146 1.344.49.581.581.518 1.22.518 2.003 0 .784.063 1.422-.518 2.003zM9.996 11.294a.614.614 0 00-.49-.218c-.224 0-.4.099-.49.218-.113.146-.182.314-.182 1.226 0 .91.07 1.07.182 1.218.09.119.266.224.49.224a.617.617 0 00.49-.224c.112-.147.183-.308.183-1.218 0-.912-.07-1.08-.183-1.226zm.903 3.2c-.363.364-.784.56-1.393.56-.61 0-1.03-.196-1.394-.56-.525-.525-.504-1.225-.504-1.974 0-.75-.02-1.451.504-1.976.364-.364.784-.56 1.394-.56.61 0 1.03.196 1.393.56.526.525.505 1.226.505 1.976 0 .749.021 1.449-.505 1.974zM14.126 11.118v3.895H12.9v-3.895h-1.225v-1.092h3.677v1.092h-1.226zM18.6 15.013l-.82-1.534-.82 1.534h-1.4l1.555-2.557-1.456-2.43h1.393l.729 1.408.728-1.407h1.394l-1.457 2.429L20 15.013h-1.4z" fill="inherit"/></svg>
